symbols/web/laptop_windows/materialsymbolsrounded/laptop_windows_wght100gradN25_24px.svg

<svg xmlns="http://www.w3.org/2000/svg" height="24" width="24"><path d="M1.775 18.275q-.15 0-.237-.087-.088-.088-.088-.213 0-.15.088-.238.087-.087.237-.087h3.1v-.7q-.625 0-1.037-.412-.413-.413-.413-1.013V7.2q0-.6.413-1.025.412-.425 1.012-.425h14.3q.6 0 1.013.425.412.425.412 1.025v8.325q0 .6-.412 1.013-.413.412-1.013.412v.7h3.1q.125 0 .225.1t.1.2q0 .15-.1.238-.1.087-.225.087Zm3.1-1.95H19.15q.35 0 .575-.225.225-.225.225-.575V7.2q0-.35-.225-.575Q19.5 6.4 19.15 6.4H4.875q-.35 0-.575.225-.225.225-.225.575v8.325q0 .35.225.575.225.225.575.225Zm-.8 0V6.4 16.325Z"/></svg>

<svg xmlns="http://www.w3.org/2000/svg" height="24" width="24"><path d="M1.775 18.275Q1.625 18.275 1.538 18.188Q1.45 18.1 1.45 17.975Q1.45 17.825 1.538 17.737Q1.625 17.65 1.775 17.65H4.875V16.95Q4.25 16.95 3.838 16.538Q3.425 16.125 3.425 15.525V7.2Q3.425 6.6 3.838 6.175Q4.25 5.75 4.85 5.75H19.15Q19.75 5.75 20.163 6.175Q20.575 6.6 20.575 7.2V15.525Q20.575 16.125 20.163 16.538Q19.75 16.95 19.15 16.95V17.65H22.25Q22.375 17.65 22.475 17.75Q22.575 17.85 22.575 17.95Q22.575 18.1 22.475 18.188Q22.375 18.275 22.25 18.275ZM4.875 16.325H19.15Q19.5 16.325 19.725 16.1Q19.95 15.875 19.95 15.525V7.2Q19.95 6.85 19.725 6.625Q19.5 6.4 19.15 6.4H4.875Q4.525 6.4 4.3 6.625Q4.075 6.85 4.075 7.2V15.525Q4.075 15.875 4.3 16.1Q4.525 16.325 4.875 16.325ZM4.075 16.325Q4.075 16.325 4.075 16.1Q4.075 15.875 4.075 15.525V7.2Q4.075 6.85 4.075 6.625Q4.075 6.4 4.075 6.4Q4.075 6.4 4.075 6.625Q4.075 6.85 4.075 7.2V15.525Q4.075 15.875 4.075 16.1Q4.075 16.325 4.075 16.325Z"/></svg>
